X:0793
T:Mrs. Hamilton of Wishaw's Strathspey.
M:C
L:1/8
Q:1/4=120
I: :: ||
Z:Jack Campin * www.campin.me.uk * 2009
K:G
D   |GGGG           A>FDF|  GG```BG A3  B   |BB``BE       FGAB |E>A G/F/E/D/ G2 G   :|
e/f/|g>d  g/f/e/a/ (ged)B|(.G.G) Bd eA Ae/f/|g>d g/f/e/a/ g>edB|DD  DE/F/    G2 Ge/f/|
     g>d (g/f/e/)a/ g>edB|  GG```Bd eA AB/c/|Bd``dg       ceea |DD  DE/F/    G2 G   |]
<end>
<start>
